flutter/assets/display.svg

<svg xmlns="http://www.w3.org/2000/svg" width="32pt" height="32pt" style="isolation:isolate" viewBox="450.189 521.772 32 32"><path fill="none" d="M450.189 521.772h32v32h-32v-32Z"/><path fill-rule="evenodd" d="M470.477 545.236h2.795a5.13 5.13 0 0 0 3.639-1.515 5.126 5.126 0 0 0 1.515-3.639v-9.07a5.126 5.126 0 0 0-1.515-3.639 5.13 5.13 0 0 0-3.639-1.515h-14.166a5.13 5.13 0 0 0-3.639 1.515 5.127 5.127 0 0 0-1.516 3.639v9.07c0 1.363.544 2.675 1.516 3.639a5.13 5.13 0 0 0 3.639 1.515h2.795v1.234a3.217 3.217 0 0 0 3.216 3.216h2.144a3.217 3.217 0 0 0 3.216-3.216v-1.234Zm-11.371-15.753h14.166c.406 0 .79.166 1.08.449.283.29.449.674.449 1.08v9.07c0 .406-.166.79-.449 1.08-.29.283-.674.449-1.08.449h-14.166c-.406 0-.79-.166-1.08-.449a1.55 1.55 0 0 1-.45-1.08v-9.07c0-.406.167-.79.45-1.08.29-.283.674-.449 1.08-.449Z"/></svg>

<?xml version="1.0" encoding="UTF-8" standalone="no"?>
<svg xmlns="http://www.w3.org/2000/svg" xmlns:xlink="http://www.w3.org/1999/xlink" style="isolation:isolate" viewBox="450.189 521.772 32 32" width="32pt" height="32pt"><g><path d=" M 450.189 521.772 L 482.189 521.772 L 482.189 553.772 L 450.189 553.772 L 450.189 521.772 Z " fill="none"/><path d=" M 470.477 545.236 L 473.272 545.236 C 474.635 545.236 475.947 544.692 476.911 543.721 C 477.883 542.757 478.426 541.445 478.426 540.082 L 478.426 531.012 C 478.426 529.649 477.883 528.337 476.911 527.373 C 475.947 526.402 474.635 525.858 473.272 525.858 L 459.106 525.858 L 459.106 525.858 C 457.743 525.858 456.431 526.402 455.467 527.373 C 454.495 528.337 453.951 529.649 453.951 531.012 L 453.951 540.082 C 453.951 541.445 454.495 542.757 455.467 543.721 C 456.431 544.692 457.743 545.236 459.106 545.236 L 461.901 545.236 L 461.901 546.47 C 461.901 548.245 463.342 549.686 465.117 549.686 L 467.261 549.686 C 469.036 549.686 470.477 548.245 470.477 546.47 L 470.477 545.236 L 470.477 545.236 Z  M 459.106 529.483 L 473.272 529.483 C 473.678 529.483 474.062 529.649 474.352 529.932 C 474.635 530.222 474.801 530.606 474.801 531.012 L 474.801 540.082 C 474.801 540.488 474.635 540.872 474.352 541.162 C 474.062 541.445 473.678 541.611 473.272 541.611 L 459.106 541.611 C 458.7 541.611 458.316 541.445 458.026 541.162 C 457.743 540.872 457.576 540.488 457.576 540.082 L 457.576 531.012 C 457.576 530.606 457.743 530.222 458.026 529.932 C 458.316 529.649 458.7 529.483 459.106 529.483 L 459.106 529.483 L 459.106 529.483 Z " fill-rule="evenodd" fill="rgb(0,0,0)"/></g></svg>
